X: 639
T: Xiaoguafu shangfen
L: 1/8
M: 2/4
K: F
c2B G [I:setbarnb 1]| 
c4 | 
f2g f | 
d cB2 | 
c> d f d | 
c3B | 
G A G F | 
D4 | 
D F D F | 
G4 | 
D F D F | 
G4 | 
c4 | 
f2d c | 
B2c A | 
G A/ G/ F G | 
B3c | 
G F E D | 
F G F D | 
C3D | 
C4 |]

@@@ Tune index: 9513
